X: 180
T: Aşkınla Harâb Kalbimi
C: Şerif İçli
O: Turkey
F: http://compmusic.upf.edu/node/140
N: beyati--sarki--turkaksagi--askinla_harab--serif_icli
N: makam= beyati
N: form= sarki
N: usul= turkaksagi = 5/8
M: 5/8
L: 1/16
K: C _2/4B   
Q: 1/4=96
%%MIDI tuningsystem comma53
c3d d4 c2 | d2 {f}edd6  | c2BA A2B2 cd | \
w:  Aş *  kın  |  la  *  ha *  râb   |  kal  | 
cB BAA6  | AGAB cdef eg | 
w:  bi *  mi  *  bir   |  lah  | 
f2 e2{f}e2 d2c2  | g2fe e2d2 {f}ed | \
w:   |  za  se *  vin  | 
d4c2 B2A2  | c3d d4 c2 | d2 {f}edd6  | 
w:  dir   SAZ  |  Aş *  kın  |  la  *  ha *  râb   | 
c2BA A2B2 cd | cB BAA6  | AGAB cdef eg | 
w:  kal  |  bi *  mi  *  bir   |  lah  | 
f2 e2{f}e2 d2c2  | g2fe e2d2 {f}ed | \
w:   |  za  se *  vin  | 
d4GA Bcd2  | e2{f}ed d4 c2 | 
w:  dir   SAZ  |  Gön *  *  *  lüm  | 
d2 e2gf edcB  | A2B2 d2c2 d2 | cB BAA6  | \
w:  de ki  has  |  ret   |  sa *  na  *  bil  | 
A2G2 g2^3/4f2 g2 | 
w:  sen   | 
a2 _bag^3/4f _7/8edcB  | ABcd dcB2 {c}BA | \
w:   |  ne  *  de *  rin  | 
A4GA Bcd2  | 
w:  dir   SAZ  | 
e2{f}ed d4 c2 | d2 e2gf edcB  | A2B2 d2c2 d2 | \
w:  Gön *  *  *  lüm  |  de ki  has  |  ret   | 
cB BAA6  | 
w:  sa *  na  *  bil  | 
A2G2 g2^3/4f2 g2 | a2 _bag^3/4f _7/8edcB  | \
w:  sen   |   | 
ABcd dcB2 {c}BA | 
w:  ne  *  de *  rin  | 
A4cd _7/8e^3/4fg2  | ^3/4f3g g6 | a2 _b2ag ^3/4fga2  | \
w:  dir   SAZ  |  Hül *  yâ  |  lı  ge çen   | 
^3/4f2_7/8ed d2{e}d=e dc | 
w:  gün  | 
cB BAA6  | AGAB cdef eg | f2 e2{f}e2 d2c2  | \
w:  le *  ri *  min   |  der  |   | 
g2fe e2d2 {f}ed | 
w:  di ni  *  din  | 
d4cd _7/8e^3/4fg2  | ^3/4f3g g6 | a2 _b2ag ^3/4fga2  | \
w:  dir   SAZ  |  Hül *  yâ  |  lı  ge çen   | 
^3/4f2_7/8ed d2{e}d=e dc | 
w:  gün  | 
cB BAA6  | AGAB cdef eg | f2 e2{f}e2 d2c2  | \
w:  le *  ri *  min   |  der  |   | 
g2fe e2d2 {f}ed | 
w:  di ni  *  din  | 
d4GA Bcd2  | e2{f}ed d4 c2 | d2 e2gf edcB  | \
w:  dir   SAZ  |  Gön *  *  *  lüm  |  de ki  has  | 
A2B2 d2c2 d2 | 
w:  ret   | 
cB BAA6  | A2G2 g2^3/4f2 g2 | a2 _bag^3/4f _7/8edcB  | \
w:  sa *  na  *  bil  |  sen   |   | 
ABcd dcB2 {c}BA | 
w:  ne  *  de *  rin  | 
A4GA Bcd2  | e2{f}ed d4 c2 | d2 e2gf edcB  | \
w:  dir   SAZ  |  Gön *  *  *  lüm  |  de ki  has  | 
A2B2 d2c2 d2 | 
w:  ret   | 
cB BAA6  | A2G2 g2^3/4f2 g2 | a2 _bag^3/4f _7/8edcB  | \
w:  sa *  na  *  bil  |  sen   |   | 
ABcd dcB2 {c}BA | 
w:  ne  *  de *  rin  | 
A4|
w:  dir    | 


